X:1
T:Title
%%score { 1 | 2 }
L:1/8
M:4/4
K:G
V:1 treble nm="Grand Piano"
V:2 bass 
V:1
 z4 z2[Q:1/4=100] D2 | B3 _B =B2 [DG]D | E2 [EG][^DA] [=DB]4 | [Fd]2 [FA][GB] [Fd]2 [Fc][DFA] | %4
 [B,G]2 [^CGA][CGB] [DFA]3 D | B3 _B =B2 [DG]D | E2 [EG][Ec] [Ge]4 | d3 d d d2 d | %8
[M:17/16] [Fd]-<[Fd][CDF]-<[CDF][B,DG]/-[B,DG]/-[B,DG]/-[B,DG]/-[B,DG]/-[B,DG]-<[B,DG] |[M:1/8] B | %10
[M:4/4] B B3 [^DB] [DB]3 | B2 AG F4 | G3 G [FA] [FA]2 [GB] | [Ac]2 [GB]2 [FA]4 | B3 B d4 | %15
 [EGc]3 [EGc] [Ge]4 | d3 d d d2 d |[M:7/8] [Fd]2 [CDF]2 [B,DG]3 |] %18
V:2
 z4 z2 [G,B,]2 | [G,D]3 [G,^C] [G,D]2 [B,,G,][B,,G,] | [C,G,C]2 [C,G,][C,G,] [G,,G,]4 | %3
 [D,A,]2 [D,D][D,D] [D,D]2 [D,A,]D, | E,2 A,,A,, D,3 D, | [G,D]3 [G,^C] [G,D]2 [B,,G,][B,,G,] | %6
 [C,G,C]2 [C,C][C,G,] [C,C]4 | [G,B,G]3 [G,B,G] [G,B,G] [G,B,G]2 [G,B,G] | %8
[M:17/16][K:bass] [D,A,]-<[D,A,]D,-<D,G,,/-G,,/-G,,/-G,,/-G,,/-G,,-<G,, |[M:1/8] [E,G,E] | %10
[M:4/4] [E,G,E] [E,G,E]3 [B,,F,] [B,,F,]3 | B,2 A,G, F,4 | [E,B,E]3 [E,B,E] [D,D] [D,D]2 [D,D] | %13
 [D,D]2 [D,D]2 [D,D]4 | [G,DG]3 [G,DG] [G,B,G]4 | C,3 C, [C,C]4 | %16
 [G,B,G]3 [G,B,G] [G,B,G] [G,B,G]2 [G,B,G] |[M:7/8][K:bass] [D,A,]2 D,2 G,,3 |] %18

